X: 13
T: Paddy Fahy's (#3438)
C: Paddy Fahy
M: 4/4
S: Liz &amp; Yvonne Kane - Under The Diamond (#4.1) 
N: irishtune.info/tune/3438
N: Also In G, Also 2nd Part Singled
Z: BanjoManDingo@comcast.net
K: Bbmaj
F|:D2FD E2cE|DFBd cFAc|Bbag f_fec|Bf (3f=ef gf=ef|
dBFD E2cE|DFBd cFAc|Bbag f_feA|1 cBBA  B3F:|2 cBBA B2df||
|:bBdf gbag|f2af gf=ef|dBFD E2cE|DFBd cFAc|
Bbag f_fec|Bf (3f=ef gf=ef|dBFD E2cE|1 DFAc B2df:|2 DFAc B2FE||
